packages/core/src/svgs/mln.svg

<svg width="24" height="24" viewBox="0 0 24 24" fill="none" xmlns="http://www.w3.org/2000/svg">
<g clip-path="url(#clip0_31_13962)">
<path d="M0 0H24V24H0V0Z" fill="url(#paint0_linear_31_13962)"/>
<path d="M13.2857 6.85693C12.5743 6.85693 12 7.44836 12 8.17693V11.9998H9.42861V9.43265C9.42917 9.31973 9.40742 9.20781 9.36459 9.10332C9.32177 8.99883 9.25872 8.90383 9.17907 8.82378C9.09943 8.74374 9.00474 8.68022 8.90047 8.63687C8.7962 8.59353 8.68439 8.57122 8.57146 8.57122C8.45854 8.57122 8.34673 8.59353 8.24246 8.63687C8.13818 8.68022 8.0435 8.74374 7.96385 8.82378C7.8842 8.90383 7.82115 8.99883 7.77833 9.10332C7.73551 9.20781 7.71376 9.31973 7.71432 9.43265V11.9998H5.57146V11.1426C5.57146 10.9153 5.48116 10.6973 5.32041 10.5366C5.15967 10.3758 4.94165 10.2855 4.71432 10.2855C4.48699 10.2855 4.26897 10.3758 4.10823 10.5366C3.94748 10.6973 3.85718 10.9153 3.85718 11.1426V11.9998H5.57146V13.3841C5.57146 14.0398 6.05146 14.5712 6.64289 14.5712C7.23432 14.5712 7.71432 14.0398 7.71432 13.3841V11.9998H9.42861V15.8012C9.42171 16.1495 9.55318 16.4862 9.7942 16.7377C10.0352 16.9891 10.3661 17.1348 10.7143 17.1426C11.4257 17.1426 12 16.5426 12 15.8012V11.9998H14.5715V15.0126C14.5715 15.4798 14.9572 15.8569 15.4286 15.8569C15.9 15.8569 16.2857 15.4798 16.2857 15.0126V11.9998H18V12.8569C18 13.0843 18.0903 13.3023 18.2511 13.463C18.4118 13.6238 18.6298 13.7141 18.8572 13.7141C19.0845 13.7141 19.3025 13.6238 19.4633 13.463C19.624 13.3023 19.7143 13.0843 19.7143 12.8569V11.9998H18V9.30836C18 8.90122 17.6143 8.57122 17.1429 8.57122C16.6715 8.57122 16.2857 8.90122 16.2857 9.30836V11.9998H14.5715V8.17693C14.5715 7.44836 13.9972 6.85693 13.2857 6.85693Z" fill="white"/>
</g>
<defs>
<linearGradient id="paint0_linear_31_13962" x1="12" y1="0" x2="12" y2="24" gradientUnits="userSpaceOnUse">
<stop offset="0.24" stop-color="#6F4AEF"/>
<stop offset="0.66" stop-color="#01CBBF"/>
</linearGradient>
<clipPath id="clip0_31_13962">
<rect width="24" height="24" fill="white"/>
</clipPath>
</defs>
</svg>

<svg xmlns="http://www.w3.org/2000/svg" width="24" height="24" fill="none" viewBox="0 0 24 24"><g clip-path="url(#a)"><path fill="url(#b)" d="M0 0h24v24H0z"/><path fill="#fff" d="M13.286 6.857c-.712 0-1.286.591-1.286 1.32V12H9.429V9.433a.857.857 0 1 0-1.715 0V12H5.571v-.857a.857.857 0 1 0-1.714 0V12h1.714v1.384c0 .656.48 1.187 1.072 1.187.591 0 1.071-.531 1.071-1.187V12H9.43V15.8a1.316 1.316 0 0 0 1.285 1.342c.712 0 1.286-.6 1.286-1.342V12h2.572v3.013c0 .467.385.844.857.844a.85.85 0 0 0 .857-.844V12H18v.857a.857.857 0 1 0 1.714 0V12H18V9.308c0-.407-.386-.737-.857-.737s-.857.33-.857.737V12H14.57V8.177c0-.729-.574-1.32-1.285-1.32"/></g><defs><linearGradient id="b" x1="12" x2="12" y1="0" y2="24" gradientUnits="userSpaceOnUse"><stop offset=".24" stop-color="#6F4AEF"/><stop offset=".66" stop-color="#01CBBF"/></linearGradient><clipPath id="a"><path fill="#fff" d="M0 0h24v24H0z"/></clipPath></defs></svg>
